X: 41425
T: Twirly Haired Girl, The
R: reel
M: 4/4
K: Amixolydian
E3A ABcd|(de) e2 ed=cB|=cAAG ABcA|BGFA JG2FG|
E3A ABcd|e2 e2 edcd|eAce dGBd|cAAG A3G|
EAAG AB=cd|e2 e2 ed=cB|=cAAG ABcA|BGFA JG2FG|
E3A ABcd|e2 e2 edcd|eAce dGBd|cAAG A2Bd||
e3g edcd|e3g edcd|eaa^g a=gea|g2g2 gfed|
e2e2 edcd|e3g edcd|eAce dGBd|=cAAG A2Bd|
e3g edcd|(de) e2 edcd|eaa^g a=gea|Jg2g2 gfed|
e3g edcd|e3g edcd|eAce dGBd|cAAG A2||

